X:294
T: BUHSKE DI REMMER
N: E0166
O: Europa, Mitteleuropa, Deutschland, Ost - Friesland
R: erzaehlendes Volks - Lied, Sage, Tier - Maerchen
M: 3/4
L: 1/8
K: G
 | d2d2d2 | d2e2f2 | g4f2 | e4
d2 | d3cBA | G4z2 |
d2d2d2 | d2e2f2 | g4f2 | e4
d2 | d3cBA | G4z2 |
A2A2A2 | A2B2c2 | d3cB2 | A4
B2 | A3GF2 | G4B2 | A3GF2 | G4z2

@@@ Tune index: 3944
